assets/courses/logos/tdd.svg

<svg width="81" height="73" viewBox="0 0 81 73" fill="none" xmlns="http://www.w3.org/2000/svg">
    <ellipse cx="39.8746" cy="15.5955" rx="15.8512" ry="15.5955" fill="#2C2C2C"/>
    <ellipse cx="64.15" cy="56.7772" rx="15.8512" ry="15.5955" fill="#2C2C2C"/>
    <ellipse cx="15.8512" cy="56.6561" rx="15.8512" ry="15.5955" fill="#2C2C2C"/>
    <path d="M54.3706 42.971C55.1769 43.1849 56.0016 42.7138 56.2125 41.9187L59.6495 28.9625C59.8604 28.1674 59.3777 27.3495 58.5713 27.1356C57.7649 26.9217 56.9403 27.3928 56.7294 28.1879L53.6743 39.7045L41.9939 36.606C41.1875 36.3921 40.3628 36.8632 40.1519 37.6582C39.941 38.4533 40.4237 39.2712 41.2301 39.4851L54.3706 42.971ZM47.803 32.707L53.45 42.2755L56.0549 40.7873L50.4079 31.2188L47.803 32.707Z" fill="#2C2C2C"/>
    <path d="M31.1244 31.5885C31.017 30.7737 30.2581 30.1949 29.4292 30.2959L15.9228 31.9408C15.094 32.0417 14.5091 32.7841 14.6165 33.599C14.7239 34.4138 15.4828 34.9926 16.3117 34.8916L28.3174 33.4295L29.8729 45.2329C29.9803 46.0478 30.7392 46.6265 31.5681 46.5256C32.3969 46.4247 32.9817 45.6823 32.8743 44.8674L31.1244 31.5885ZM23.933 41.4307L30.8223 32.6853L28.425 30.8572L21.5357 39.6026L23.933 41.4307Z" fill="#2C2C2C"/>
    <path d="M33.6062 57.3303C33.0183 57.9139 33.0207 58.8578 33.6115 59.4385L43.2392 68.9023C43.83 69.4831 44.7855 69.4807 45.3734 68.8971C45.9612 68.3135 45.9589 67.3696 45.3681 66.7889L36.8102 58.3766L45.3258 49.9229C45.9137 49.3393 45.9113 48.3954 45.3205 47.8146C44.7297 47.2339 43.7742 47.2362 43.1863 47.8198L33.6062 57.3303ZM45.9181 56.8637L34.6722 56.891L34.6797 59.8726L45.9256 59.8453L45.9181 56.8637Z" fill="#2C2C2C"/>
</svg>

<svg width="81" height="73" fill="none" xmlns="http://www.w3.org/2000/svg"><ellipse cx="39.875" cy="15.595" rx="15.851" ry="15.595" fill="#2C2C2C"/><ellipse cx="64.15" cy="56.777" rx="15.851" ry="15.595" fill="#2C2C2C"/><ellipse cx="15.851" cy="56.656" rx="15.851" ry="15.595" fill="#2C2C2C"/><path d="M54.37 42.971a1.5 1.5 0 0 0 1.843-1.052l3.437-12.956a1.5 1.5 0 0 0-1.079-1.827 1.5 1.5 0 0 0-1.842 1.052l-3.055 11.517-11.68-3.099a1.5 1.5 0 0 0-1.842 1.052 1.5 1.5 0 0 0 1.078 1.827l13.14 3.486Zm-6.567-10.264 5.647 9.569 2.605-1.489-5.647-9.568-2.605 1.488ZM31.124 31.588c-.107-.814-.866-1.393-1.695-1.292L15.923 31.94c-.829.1-1.414.843-1.306 1.658.107.815.866 1.394 1.695 1.293l12.005-1.463 1.556 11.804c.107.815.866 1.394 1.695 1.293a1.482 1.482 0 0 0 1.306-1.659l-1.75-13.278Zm-7.191 9.843 6.89-8.746-2.398-1.828-6.89 8.746 2.398 1.828ZM33.606 57.33a1.478 1.478 0 0 0 .005 2.108l9.628 9.464c.591.581 1.547.579 2.134-.005a1.478 1.478 0 0 0-.005-2.108l-8.558-8.412 8.516-8.454a1.478 1.478 0 0 0-.005-2.108 1.522 1.522 0 0 0-2.135.005l-9.58 9.51Zm12.312-.466-11.246.027.008 2.982 11.246-.028-.008-2.981Z" fill="#2C2C2C"/></svg>
